dist/svgs/unicons/line/university.svg

<svg xmlns="http://www.w3.org/2000/svg" data-name="Layer 1" viewBox="0 0 24 24"><path d="M21,10a.99974.99974,0,0,0,1-1V6a.9989.9989,0,0,0-.68359-.94824l-9-3a1.002,1.002,0,0,0-.63282,0l-9,3A.9989.9989,0,0,0,2,6V9a.99974.99974,0,0,0,1,1H4v7.18427A2.99507,2.99507,0,0,0,2,20v2a.99974.99974,0,0,0,1,1H21a.99974.99974,0,0,0,1-1V20a2.99507,2.99507,0,0,0-2-2.81573V10ZM20,21H4V20a1.001,1.001,0,0,1,1-1H19a1.001,1.001,0,0,1,1,1ZM6,17V10H8v7Zm4,0V10h4v7Zm6,0V10h2v7ZM4,8V6.7207l8-2.667,8,2.667V8Z"/></svg>

<svg xmlns="http://www.w3.org/2000/svg" data-name="Layer 1" viewBox="0 0 24 24"><path d="M21 10a1 1 0 001-1V6a.999.999 0 00-.684-.948l-9-3a1.002 1.002 0 00-.632 0l-9 3A.999.999 0 002 6v3a1 1 0 001 1h1v7.184A2.995 2.995 0 002 20v2a1 1 0 001 1h18a1 1 0 001-1v-2a2.995 2.995 0 00-2-2.816V10zm-1 11H4v-1a1.001 1.001 0 011-1h14a1.001 1.001 0 011 1zM6 17v-7h2v7zm4 0v-7h4v7zm6 0v-7h2v7zM4 8V6.72l8-2.666 8 2.667V8z"/></svg>
